X:1
T:Sine Nomine
T:Sine Nomine
T:Public  domain
T:Public  domain
Z:Public  domain
%%score 1 { ( 2 3 ) ( 4 5 ) }
L:1/8
Q:1/4=115
M:4/4
K:G
V:1 treble nm="Hymn Tune"
V:2 treble nm="P2"
V:3 treble 
V:4 bass nm="P3"
V:5 bass 
V:1
"^Editor: John Henry Fowler""^( Revision: 11-24-2007 )" z2 d2 B2 A2 | G6 D2 | %2
 E2"^( 1906 )" G2 A2 D2 | B6 B2 |"^Ralph Vaughan Williams" A6"^( 1872 - 1958 )" G2 | F4 F4 | %6
 G2 A2 F2 E2 | D6 D2 | G4 G4 | d6 d2 | c2 d2 cB AG | A4 d4 | e2 dc d4 | G6 AB | c2 B2 A4 | G8 |] %16
V:2
 z2 [DGBd]2 [EGB]2 [CFA]2 | [EG]6 D2 | [G,E]2 [DG]2 [CEA]2 D2 | [DGB]6 [DGB]2 | [DA]6 [A,^CG]2 | %5
 [A,DF]4 [A,DF]4 | [G,DG]2 [A,DA]2 [B,DF]2 [G,^CE]2 | [F,A,D]6 [F,A,D]2 | D2 E2 D2 C2 | %9
 [DGBd]6 [GBd]2 | [Gc]2 d2 cB AG | [DFA]4 [DG]2 [=FB]2 | e2 dc [Gd]4 | z2 B,2 E2 AB | c2 [GB]2 A4 | %15
 [B,DG]8 |] %16
V:3
 x8 | B,4 C2 G,2 | x8 | x8 | x8 | x8 | x8 | x8 | [G,G]4 [G,G]4 | x8 | C2 A2 [DG]2 D2 | x8 | %12
 [EG]4 D2 EF | G6 [DG]2 | [EG]2 D2 [DG]2 [CF]2 | x8 |] %16
V:4
 G,,2 B,,2 C,2 D,2 | E,2 D,2 C,2 B,,2 | G,6 F,2 | G,2 B,2 A,2 G,2 | F,2 G,2 F,2 E,2 | %5
 D,2 E,2 D,2 ^C,2 | B,,2 F,,2 G,,2 A,,2 | D,2 E,2 D,2 C,2 | G,4 G,4 | [G,B,D]6 [G,B,D]2 | %10
 [G,C]2 [A,D]2 [G,D]2 [G,D]2 | A,4 G,4 | G,4 G,4 | G,4 G,4 | A,,2 B,,C, D,2 D,,2 | G,,8 |] %16
V:5
 x8 | x8 | C,2 B,,2 A,,2 D,2 | x8 | x8 | x8 | x8 | x8 | B,,2 C,2 B,,2 A,,2 | G,,2 A,,2 G,,2 F,,2 | %10
 E,,2 F,,2 G,,2 A,,2 | D,2 C,2 B,,2 G,,2 | C,2 A,,2 B,,2 C,D, | E,2 D,2 C,2 B,,2 | x8 | x8 |] %16

